X:41
T:White Cockade
S:John Moore's Book 1
Z:Transcribed by David Jacobs  April 2021
%%VWML: Moore1-4493-p25-0
F:http://www.vwml.org/record/Moore1/4493/p25
M:C|
L:1/8
K:G
B2B2B2AG|B2B2B2ge|d2B2B2AG|F2A2A4|
B2B2B2AG|B2d2g3a|bagf efge|d2B2B4:|
|:d2B2g2B2|d2B2B4|d2B2g2B2|a2A2A4|
B2B2B2AG|B2d2g3a|bagf efge|d2B2B4:|]

